X: 6142
T: Captain Norman Orr-Ewing
R: march
M: 
K: Dmajor
M:2/4
|:f/>e/|df AB/c/|d2 Ag|f>e df|fe ef/e/|
df AB/c/|d2 Ag|f2 e>f|d2 d:|
|:g|a>f da|fa de/f/|g>e ce|
[1 Be Af/g/|a>f da|fa dg|f2 ef|d2 d:|
[2 Be Af/e/|df AB/c/|d2 Ag|f2 e>f|d2 d||
|:f/e/|dA BG/B/|A2 d>B|A>B df|fe ef/e/|
dA BG|A2 dg|f2 e>f|d3 d:|
|:f/<g/|fa fd|A2 d>B|A>B df|
[1 fe eg|f<a fd|A2 dg|f2 e>f|d2 d:|
[2 fe ef/e/|df AB/c/|d2 Ag|f2 e>f|d2 d||

